X: 184
T: the Squirrel
C: H.Richter
Q: "Allegretto."
B: "The Everyday Song Book", 1927
F: http://www.library.pitt.edu/happybirthday/pdf/The_Everyday_Song_Book.pdf
Z: 2017 John Chambers <jc:trillian.mit.edu>
M: 4/4
L: 1/4
K: Bb
%%continueall 1
% - - - - - - - - - - - - - - - - - - - - - - - - - - - - -
d | ed cB | AG FF | FB cd | c2 zd | ed
w: 1.~The squir-rel sits the whole day through And cracks his nuts at ease; While black-birds
w: 2.~With cun-ning glance he casts a-round    His mer-ry spark-ling eye;   In yon-der
w: 3.~And then he flies much more a-lert       Than but-ter-fly or bee;     No lamb or
%
cB | AG FF | dB (c/B/)A | f2 ze | dB (c/B/)A | B2 z |]
w: sing and stock doves coo A-mid the neigh-*b'ring trees, A-mid the neigh-*b'ring trees.
w: ha-zel by the brook      Rich clus-ters he can* spy,    Rich clus-ters he can* spy.
w: kid is half so light,    So swift of foot as* he        So swift of foot as* he.
% - - - - - - - - - - - - - - - - - - - - - - - - - - - - -
